src/svg/video-outline.svg

<svg version="1.2" baseProfile="tiny" xmlns="http://www.w3.org/2000/svg" width="24" height="24" viewBox="0 0 24 24"><circle cx="7" cy="11" r="1"/><path d="M21.585 7.188c-.262-.188-.599-.241-.901-.137l-1.707.568c-.188-1.477-1.451-2.62-2.977-2.62h-11c-1.654 0-3 1.347-3 3v6c0 1.653 1.346 3 3 3h3v1.111l.008.09c.066.738.381 1.423.887 1.928.562.562 1.311.872 2.104.872s1.542-.31 2.104-.87c.574-.577.898-1.346.896-2.113v-1.017h2c1.524 0 2.789-1.145 2.978-2.62l1.707.568c.303.104.64.051.9-.138.262-.188.415-.49.415-.812v-6c.001-.318-.153-.621-.414-.81zm-9.585 10.835c.001.248-.119.5-.309.689-.191.189-.441.286-.692.286-.25 0-.501-.097-.69-.286-.19-.189-.285-.441-.309-.691v-2.021h2v2.023zm5-4.023c0 .552-.448 1-1 1h-11c-.552 0-1-.448-1-1v-6c0-.552.448-1 1-1h11c.552 0 1 .448 1 1v6zm3-1.389s-1.895-.605-2-.605v-2.012c.105 0 2-.605 2-.605v3.222z"/></svg>

<?xml version="1.0" encoding="iso-8859-1"?>
<!-- Generator: Adobe Illustrator 16.2.1, SVG Export Plug-In . SVG Version: 6.00 Build 0)  -->
<svg version="1.2" baseProfile="tiny" id="Layer_1" xmlns="http://www.w3.org/2000/svg" xmlns:xlink="http://www.w3.org/1999/xlink"
	 x="0px" y="0px" width="24px" height="24px" viewBox="0 0 24 24" xml:space="preserve">
<g>
	<circle cx="7" cy="11" r="1"/>
	<path d="M21.585,7.188C21.323,7,20.986,6.947,20.684,7.051l-1.707,0.568c-0.188-1.477-1.451-2.62-2.977-2.62H5
		c-1.654,0-3,1.347-3,3v6c0,1.653,1.346,3,3,3h3v1.021v0.09l0.008,0.09c0.066,0.738,0.381,1.423,0.887,1.928
		c0.562,0.562,1.311,0.872,2.104,0.872s1.542-0.31,2.104-0.87c0.574-0.577,0.898-1.346,0.896-2.113V17h2
		c1.524,0,2.789-1.145,2.978-2.62l1.707,0.568c0.303,0.104,0.64,0.051,0.9-0.138c0.262-0.188,0.415-0.49,0.415-0.812v-6
		C22,7.68,21.846,7.377,21.585,7.188z M12,18.023c0.001,0.248-0.119,0.5-0.309,0.689c-0.191,0.189-0.441,0.286-0.692,0.286
		c-0.25,0-0.501-0.097-0.69-0.286c-0.19-0.189-0.285-0.441-0.309-0.691V16h2V18.023z M17,14c0,0.552-0.448,1-1,1H5
		c-0.552,0-1-0.448-1-1V8c0-0.552,0.448-1,1-1h11c0.552,0,1,0.448,1,1V14z M20,12.611c0,0-1.895-0.605-2-0.605V9.994
		c0.105,0,2-0.605,2-0.605V12.611z"/>
</g>
</svg>
